X:1
T:Dance of the Mirlitons
T:Dance of the Mirlitons
T:The Nutcracker, Piano Arrangement for 3 hands
T:Hinci
C:Hinci
%%score { 1 | 2 | 3 }
L:1/8
Q:1/4=66
M:2/4
K:D
V:1 treble nm="Piano" snm="Pno."
V:2 bass 
V:3 bass 
V:1
"^Moderato assai."!p! z4 | z4 |!mp! .[Ad]/.[Gc]/.[Ad]/.[Gc]/ .[Ad].[Gc] | %3
!<(! .[Ae]([Ad]/4[df]/4[fa]/4[ad']/4!<)!!mf! !tenuto![ad'f']2) | %4
 .[bd'g']/.[ac'f']/.[bd'g']/.[ac'f']/!>(! ([gbe']/[fad']/).[dfa]/.[Adf]/!>)! | %5
 !tenuto![G_Bd]2{/_b} [gac']2 | .[gb]/.[GB]/.[GB]/.[GB]/"_cresc."{/c} .[^GB].A | %7
 .[gb]/.[GB]/.[GB]/.[GB]/{/c} .[^GB].A | .[_bd']/.[_Bd]/.[Bd]/.[Bd]/ .[=Bd]/.[Bc]/.[Be]/.[Bd]/ | %9
 .[Gd]/.[Gc]/.[GB]/.[GA]/!f! [ac'e'g']([c'e']/4[gc']/4[eg]/4[ce]/4) | %10
!mp! .[Ad]/.[Gc]/.[Ad]/.[Gc]/ .[Ad].[Gc] | %11
!<(! .[Ae]([Ad]/4[df]/4[fa]/4[ad']/4!<)!!mf! !tenuto![ad'f']2) | %12
 .[bd'g']/.[ac'f']/.[bd'g']/.[ac'f']/!>(! ([gbe']/[fad']/).[dfa]/.[Adf]/!>)! | %13
 !tenuto![G_Bd]2!mf!{/_b} [gac']2 |!p!!<(! .[gb]/.[GB]/.[GB]/.[GB]/{/c} .[^GB].A | %15
 .[bd']/.[Bd]/.[Bd]/.[Bd]/{/e} .[Bd].c!<)! | %16
!mf! .[d'f']/.[df]/.[df]/.[df]/ .[^B^df]/.[ce]/.[Bdf]/.[ce]/ | %17
 .[c=fa]/.[de^g]/.[cfa]/.[deg]/ .[dfb]/.[cea]/.[dfb]/.[cea]/ | %18
 .[ceb]/.[cea]/.[ceb]/.[cea]/ .[ceb]/.[cea]/.[cgb]/.[cga]/ | %19
 .[egb]/.[ega]/.[egb]/.[ega]/ .[cgb]/.[cga]/.[cgb]/.[cga]/ | %20
!>(! .[CGB]/.[CGA]/.[CGB]/.[CGA]/ .[CGB]/.[CGA]/.[EGB]/.[EGA]/ | %21
 .[CGB]/.[CGA]/.[DGB]/.[DGA]/ .[EGB]/.[EGA]/.[EGB]/.[EGA]/!>)! | %22
!mp! .[EGB]/.[EGA]/.[EGB]/.[EGA]/ .[EGB]/.[EGA]/.[EGB]/.[EGA]/ | %23
 .[CGB]/.[CGA]/.[EGB]/.[EGA]/ .[CGB]/.[CGA]/.[DGB]/.[EGc]/ | %24
 .[CGA]/.[DGB]/.[^DG^B]/.[EGc]/ .[CGA]/.[=DG=B]/.[^DG^B]/.[EGc]/ | %25
 .[CGA]/.[DGB]/.[^DG^B]/.[EGc]/ .[CGA]/.[=DG=B]/.[^DG^B]/.[EGc]/ | %26
 .[Ad]/.[Gc]/.[Ad]/.[Gc]/ .[Ad].[Gc] | %27
!<(! .[Ae]([Ad]/4[df]/4[fa]/4[ad']/4)!<)!!mf! !tenuto![ad'f']2 | %28
!f! .[bd'g']/.[ad'f']/.[bd'g']/.[ad'f']/ ([gae']/[fd']/).[cea]/.[Adf]/ | %29
 !tenuto![G_Bd]2{/d'} [gac']2 |!mp! .[gb]/.[GB]/.[GB]/.[GB]/"_cresc."{/c} .[^GB].A | %31
 .[gb]/.[GB]/.[GB]/.[GB]/{/c} .[^GB].A | .[_bd']/.[_Bd]/.[Bd]/.[Bd]/ .[=Bd]/.[Bc]/.[Be]/.[Bd]/ | %33
 .[Gd]/.[Gc]/.[GB]/.[GA]/!f!!>(! !>![ac'e'g']([c'e']/4[gc']/4[eg]/4[ce]/4)!>)! | %34
!mp! .[Ad]/.[Gc]/.[Ad]/.[Gc]/ .[Ad].[Gc] | %35
!<(! .[Ae]([Ad]/4[df]/4[fa]/4[ad']/4)!<)!!mf! !tenuto![ad'f']2 | %36
!f! .[bd'g']/.[ad'f']/.[bd'g']/.[ad'f']/ ([gae']/[fd']/).[cea]/.[Adf]/ | %37
 !tenuto![G_Bd]2{/d'} [gac']2 |!mp!"_cresc." .[gb]/.[GB]/.[GB]/.[GB]/{/c} .[^GB].A | %39
 .[gb]/.[GB]/.[GB]/.[GB]/{/c} .[^GB].A | %40
!f! .[e_bd']([deb]/4[ebd']/4[bd'e']/4.[d'e'_b']/4) .[d'e'b']!ff!([ca]/4[ec']/4[ae']/4[c'a']/4) | %41
 .[c'a']([Fd]/4[Af]/4[da]/4[fd']/4) .[fd']!mp! .D/D/ | F/F/F/[^E^G]/ [FA]/[FA]/[FA]/[GB]/ | %43
!<(! [Ac]/[Ac]/[Ac]/[Bd]/!<)!!f!!>(! [Ac]/[Ac]/[Ac]/[^GB]/!>)! | %44
!mp!!<(! [FA]/[FA]/[FA]/[^GB]/!<)!!f!!>(! [FA]/[FA]/[FA]/[^EG]/!>)! | %45
!mp! F/F/F/[^E^G]/ F/F/F/[EG]/ | F/F/F/[^E^G]/ [FA]/[FA]/[FA]/[GB]/ | %47
!<(! [Ac]/[Ac]/[Ac]/[Bd]/!<)!!f!!>(! [Ac]/[Ac]/[Ac]/[^GB]/!>)! | %48
!mp!!<(! [FA]/[FA]/[FA]/[^GB]/!<)!!f!!>(! [FA]/[FA]/[FA]/[^EG]/!>)! | %49
!mp! F/F/F/[^E^G]/ F/[FA]/[Ac]/[G^e^g]/ | [Ff]/[Ff]/[Ff]/[^G^e^g]/ [Afa]/[Afa]/[Afa]/[Bgb]/ | %51
!<(! [cac']/[cac']/[cac']/[dbd']/!<)!!f!!>(! [cac']/[cac']/[cac']/[B^gb]/!>)! | %52
!mp!!<(! [Afa]/[Afa]/[Afa]/[B^gb]/!<)!!f!!>(! [Afa]/[Afa]/[Afa]/[^G^eg]/!>)! | %53
!mp! [Ff]/[Ff]/[Ff]/[^G^e^g]/ [Ff]/[Ff]/[Ff]/[Geg]/ | %54
 [Ff]/[Ff]/[Ff]/[^G^e^g]/ [Afa]/[Afa]/[Afa]/[Bgb]/ | %55
!<(! [cac']/[cac']/[cac']/[dbd']/!<)!!f!!>(! [cac']/[cac']/[cac']/[B^gb]/!>)! | %56
!mp!!<(! [Afa]/[Afa]/[Afa]/[B^gb]/!<)!!f!!>(! [Afa]/[Afa]/[Afa]/[^G^eg]/!>)! | %57
!mp! [Ff]/[Ff]/[Ff]/[^G^e^g]/ [Ff]/[Ff]/[Ff]/[Geg]/ | %58
 [Ff]/[Ff]/[Ff]/[^G^e^g]/ [Ff]/[Ff]/[Ff]/[Geg]/ | %59
 [Ff]/"_dolce"!>(!.[cfa]/.[^GB^e]/[Q:1/4=62].[Be^g]/ .[Acf]/.[cfa]/.[GBe]/[Q:1/4=58].[Beg]/ | %60
 .[Acf]/.[cfa]/.[^GB^e]/[Q:1/4=54].[Be^g]/ .[Acf]/.[cfa]/.[Acf]/!>)!!p![Q:1/4=50].[=Gc=e]/ | %61
[Q:1/4=66] .[Ad]/.[Gc]/.[Ad]/.[Gc]/ .[Ad].[Gc] | %62
!<(! .[Ae]([Ad]/4[df]/4[fa]/4[ad']/4)!<)!!mf! !tenuto![ad'f']2 | %63
!f! .[bd'g']/.[ad'f']/.[bd'g']/.[ad'f']/ ([gae']/[fd']/).[cea]/.[Adf]/ | %64
 !tenuto![G_Bd]2{/d'} [gac']2 |!mp! .[gb]/.[GB]/.[GB]/.[GB]/"_cresc."{/c} .[^GB].A | %66
 .[gb]/.[GB]/.[GB]/.[GB]/{/c} .[^GB].A | .[_bd']/.[_Bd]/.[Bd]/.[Bd]/ .[=Bd]/.[Bc]/.[Be]/.[Bd]/ | %68
 .[Gd]/.[Gc]/.[GB]/.[GA]/!f!!>(! !>![ac'e'g']([c'e']/4[gc']/4[eg]/4[ce]/4)!>)! | %69
!mp! .[Ad]/.[Gc]/.[Ad]/.[Gc]/ .[Ad].[Gc] | %70
!<(! .[Ae]([Ad]/4[df]/4[fa]/4[ad']/4)!<)!!mf! !tenuto![d'f']2 | %71
!f! .[bd'g']/.[ad'f']/.[bd'g']/.[ad'f']/ ([gae']/[fd']/).[cea]/.[Adf]/ | [G_Bd]2{/d'} [gac']2 | %73
!mp!"_cresc." .[gb]/.[GB]/.[GB]/.[GB]/{/c} .[^GB].A | .[gb]/.[GB]/.[GB]/.[GB]/{/c} .[^GB].A | %75
!f! .[e_bd']([deb]/4[ebd']/4[bd'e']/4.[d'e'_b']/4) .[d'e'b']!ff!([ca]/4[ec']/4[ae']/4[c'a']/4) | %76
 .[c'a'c'']([Fd]/4[Af]/4[da]/4[fd']/4) .[fd'f']!fff! !arpeggio![DFd] |] %77
V:2
 .D,,.A,, .A,,,.A,, | .D,,.A,, .A,,,.A,, | .D,,.A,, .A,,,.A,, | .D,,.A,, .A,,,.A,, | %4
 .D,,.A,, .A,,,.A,, | .E,,.E, .A,,,.A,, | .C,,.C,"_cresc." .D,,.D, | .E,,.E, .F,,.F, | %8
 .G,,.G, .^G,,.^G, | .A,,!mp!.A, z z |!p! .D,,.A,, .A,,,.A,, | .D,,.A,, .A,,,.A,, | %12
 .D,,.A,, .A,,,.A,, | .E,,.E, .A,,,.A,, | .C,,.C, .D,,.D, |"_cresc." .^E,,.^E, .F,,.F, | %16
 .^G,,.^G, .A,,.A, | .B,,.B, .A,,.A, |[K:treble]!mf! (G3 E) | (=C^C F>E) | E3 C | %21
[K:bass] A,B, D>C | (C3!>(! (A, | [E,A,])(C,!>)!!p! [A,,E,])) z | z2!mp! .[A,,,C,,A,,]/ z/ z | %25
!mf! (E/4D/4C/4B,/4A,/4G,/4F,/4E,/4) (E,/4D,/4C,/4B,,/4A,,/4G,,/4F,,/4E,,/4) | %26
!mp! .D,,.A, .A,,.A, | .D,.A, .A,,.A, | .D,.A, .A,,.A, | .E,.E .A,,.A, |"_cresc." .C,,.C, .D,,.D, | %31
 .E,,.E, .F,,.F, | .G,,.G, .^G,,.^G, | .A,,!mf!.A, z2 |!mp! .D,,.A, .A,,.A, | .D,.A, .A,,.A, | %36
 .D,.A, .A,,.A, | .E,.E .A,,.A, | .C,,.C, .D,,.D, | .E,,.E, .F,,.F, | .G,[_B,D_B]- [B,DB][A,CA]- | %41
 [A,CA][F,A,F]- [F,A,F].[D,,F,,D,] | [A,,C,]>([^G,,D,] [A,,C,]>)([G,,D,] | %43
 [A,,C,]>)([^G,,D,] [A,,C,]>)([G,,D,] | [A,,C,]>)([^G,,D,] [A,,C,]>)([G,,D,] | %45
 [A,,C,]>)([^G,,D,] [A,,C,]>)([G,,D,] | [A,,C,]>)([^G,,D,] [A,,C,]>)([G,,D,] | %47
 [A,,C,]>)([^G,,D,] [A,,C,]>)([G,,D,] | [A,,C,]>)([^G,,D,] [A,,C,]>)([G,,D,] | %49
 [A,,C,]>)([^G,,D,] [A,,C,]>)([G,,D,] | [F,,A,,C,F,]>)([^E,,C,^E,] [F,,A,,C,F,]>)([E,,C,E,] | %51
 [F,,A,,C,F,]>)([^E,,C,^E,] [F,,A,,C,F,]>)([E,,C,E,] | %52
 [F,,A,,C,F,]>)([^E,,C,^E,] [F,,A,,C,F,]>)([E,,C,E,] | %53
 [F,,A,,C,F,]>)([^E,,C,^E,] [F,,A,,C,F,]>)([E,,C,E,] | %54
 [F,,A,,C,F,]>)([^E,,C,^E,] [F,,A,,C,F,]>)([E,,C,E,] | %55
 [F,,A,,C,F,]>)([^E,,C,^E,] [F,,A,,C,F,]>)([E,,C,E,] | %56
 [F,,A,,C,F,]>)([^E,,C,^E,] [F,,A,,C,F,]>)([E,,C,E,] | %57
 [F,,A,,C,F,]>)([^E,,C,^E,] [F,,A,,C,F,]>)([E,,C,E,] | %58
 [F,,A,,C,F,]>)([^E,,C,^E,] [F,,A,,C,F,]>)([E,,C,E,] | [C,F,]).C .F[K:treble] .c | .f.c' .f' z | %61
[K:bass]!mp! .D,,.A, .A,,.A, | .D,.A, .A,,.A, | .D,.A, .A,,.A, | .E,.E .A,,.A, | %65
"_cresc." .C,,.C, .D,,.D, | .E,,.E, .F,,.F, | .G,,.G, .^G,,.^G, | .A,,!mf!.A, z2 | %69
!mp! .D,,.A, .A,,.A, | .D,.A, .A,,.A, | .D,.A, .A,,.A, | .E,.E .A,,.A, | .C,,.C, .D,,.D, | %74
 .E,,.E, .F,,.F, | .G,[_B,D_B]- [B,DB][A,CA]- | [A,CA][F,A,F]- [F,A,F] [D,,F,,D,] |] %77
V:3
 z4 | z4 | z4 | z4 | z4 | z4 |!mp! A,4- | A,2 D2- | D2 (E2 | A) z z2 | z4 | z4 | z4 | z4 | z4 | %15
 z4 | z4 | z4 | z4 | z4 | z4 | z4 | z4 | z4 | z4 |[K:treble] z4 | %26
 z2!mp! .[A,D]/.[B,D]/.[A,E]/.[B,E]/ | %27
 .[A,C]!f!!arpeggio![A,DF]-!mp!!<(! [A,DF]([A,D]/4[DF]/4[FA]/4[Ad]/4)!<)! | %28
!f! .[Bd]/.[df]/.[Bd]/.[df]/!>(! .[Ac]/.[Ad]/.[EA]/.[FA]/!>)! | %29
!mp! .[_B,D]/.[DG]/.[G_B]/.[Bd]/ .[CE]/.[EA]/.[Ac]/.[ce]/ | %30
 [GB] z!mf! .[^E,^G,B,]/.[E,G,B,]/.[F,A,D]/.[A,DF]/ | [CGB] z .[^G,B,D]/.[G,B,D]/.[A,DF]/.[DFA]/ | %32
 [E^Ad] z [E,B,]2- | [E,B,] z!>(! ([A,-C-E][A,C]/4[CE]/4[EA]/4[Ac]/4)!>)! | %34
!p! [Ad] z!mp! .[A,D]/.[B,D]/.[A,E]/.[B,E]/ | %35
 .[A,C]!f!!arpeggio![A,DF]-!mp!!<(! [A,DF]([A,D]/4[DF]/4[FA]/4[Ad]/4)!<)! | %36
!f! .[Bd]/.[df]/.[Bd]/.[df]/!>(! .[Ac]/.[Ad]/.[EA]/.[FA]/!>)! | %37
!mp! .[_B,D]/.[DG]/.[G_B]/.[Bd]/ .[CE]/.[EA]/.[Ac]/.[ce]/ | %38
 [GB] z!mf! .[^E,^G,B,]/.[E,G,B,]/.[F,A,D]/.[A,DF]/ | [CGB] z .[^G,B,D]/.[G,B,D]/.[A,DF]/.[DFA]/ | %40
 [E^Ad] z z [c'e'a']- | [c'e'a'][dad']- [dad'] z | z4 | z4 | z4 | z4 | z4 | z4 | z4 | z4 | z4 | %51
 z4 | z4 | z4 | z4 | z4 | z4 | z4 | z4 | z4 | z4 | z2!mp! .[A,D]/.[B,D]/.[A,E]/.[B,E]/ | %62
 .[A,C]!f!!arpeggio![A,DF]-!mp!!<(! [A,DF]([A,D]/4[DF]/4[FA]/4[Ad]/4)!<)! | %63
!f! .[Bd]/.[df]/.[Bd]/.[df]/!>(! .[Ac]/.[Ad]/.[EA]/.[FA]/!>)! | %64
!mp! .[_B,D]/.[DG]/.[G_B]/.[Bd]/ .[CE]/.[EA]/.[Ac]/.[ce]/ | %65
 [GB] z!mf! .[^E,^G,B,]/.[E,G,B,]/.[F,A,D]/.[A,DF]/ | [CGB] z .[^G,B,D]/.[G,B,D]/.[A,DF]/.[DFA]/ | %67
 [E^Ad] z [E,B,]2- | [E,B,] z!>(! ([A,-C-E][A,C]/4[CE]/4[EA]/4[Ac]/4)!>)! | %69
!p! [Ad] z!mp! .[A,D]/.[B,D]/.[A,E]/.[B,E]/ | %70
 .[A,C]!f!!arpeggio![A,DF]-!mp!!<(! [A,DF]([A,D]/4[DF]/4[FA]/4[Ad]/4)!<)! | %71
!f! .[Bd]/.[df]/.[Bd]/.[df]/!>(! .[Ac]/.[Ad]/.[EA]/.[FA]/!>)! | %72
!mp! .[_B,D]/.[DG]/.[G_B]/.[Bd]/ .[CE]/.[EA]/.[Ac]/.[ce]/ | %73
 [GB] z!mf! .[^E,^G,B,]/.[E,G,B,]/.[F,A,D]/.[A,DF]/ | [CGB] z .[^G,B,D]/.[G,B,D]/.[A,DF]/.[DFA]/ | %75
 [E^Ad] z z [c'e'a']- | [c'e'a'][dad']- [dad'] z |] %77

